X: 42624
T: Whippet, The
R: jig
M: 6/8
K: Adorian
|:~A3 BAG|EFG A2B|~c3 BAG|BAF GBd|~g3 age|
dBA GB/c/d|ged BAG|1 EFG AEG:|2 EFG Ace||
|:~a3 ged|^cde g3|eaf ged|BA[BF] GBd|~g3 age|
dBA GB/c/d|ged BAG|1 EFG Ace:|2 EFG A[Ec][GB]||
|:~A3 BGE|~A3 BGD|G,B,D GDB,|G,B,D G,D^G,|
~A,2A BAG|EFG Ace|a2a ged|B[Gg]B AEG:|

